public/static/icons/network/ethereum_white.svg

<svg width="48" height="48" viewBox="0 0 14 24" fill="none" xmlns="http://www.w3.org/2000/svg">
<path d="M6.99984 0.75L6.84888 1.26273V16.1398L6.99984 16.2904L13.9055 12.2084L6.99984 0.75Z" fill="#C1CCF8"/>
<path d="M6.9981 0.75L0.0922852 12.2084L6.9981 16.2904V9.06952V0.75Z" fill="white"/>
<path d="M7.00012 17.5984L6.91504 17.7021V23.0016L7.00012 23.2499L13.9099 13.5186L7.00012 17.5984Z" fill="#C1CCF8"/>
<path d="M6.9981 23.2499V17.5984L0.0922852 13.5186L6.9981 23.2499Z" fill="white"/>
<path d="M7.00317 16.2913L13.9088 12.2093L7.00317 9.07031V16.2913Z" fill="#8197EE"/>
<path d="M0.0922852 12.2093L6.9981 16.2913V9.07031L0.0922852 12.2093Z" fill="#C1CCF8"/>
</svg>

<svg xmlns="http://www.w3.org/2000/svg" width="48" height="48" fill="none" viewBox="0 0 14 24"><path fill="#C1CCF8" d="m7 .75-.151.513V16.14l.15.15 6.907-4.082L7 .75Z"/><path fill="#fff" d="M6.998.75.092 12.208l6.906 4.082V.75Z"/><path fill="#C1CCF8" d="m7 17.598-.085.104v5.3L7 23.25l6.91-9.731L7 17.599Z"/><path fill="#fff" d="M6.998 23.25v-5.652l-6.906-4.08 6.906 9.732Z"/><path fill="#8197EE" d="m7.003 16.291 6.906-4.082L7.003 9.07v7.221Z"/><path fill="#C1CCF8" d="m.092 12.21 6.906 4.081v-7.22L.092 12.208Z"/></svg>
